images/indikatorenset/5815.svg

<?xml version="1.0" standalone="no"?><!DOCTYPE svg PUBLIC "-//W3C//DTD SVG 1.1//EN" "http://www.w3.org/Graphics/SVG/1.1/DTD/svg11.dtd"><svg xmlns:xlink="http://www.w3.org/1999/xlink" version="1.1" class="highcharts-root" style="font-family:arial;font-size:12px;" xmlns="http://www.w3.org/2000/svg" width="485" height="415"><desc>Created with Highstock 5.0.14</desc><defs><clipPath id="highcharts-2001cs0-6"><rect x="0" y="0" width="422" height="308" fill="none"></rect></clipPath><clipPath id="highcharts-2001cs0-7"><rect x="0" y="0" width="422" height="308" fill="none"></rect></clipPath></defs><rect fill="#fbfbfb" class="highcharts-background" x="0" y="0" width="485" height="415" rx="0" ry="0"></rect><rect fill="none" class="highcharts-plot-background" x="53" y="41" width="422" height="308"></rect><g class="highcharts-pane-group"></g><g class="highcharts-grid highcharts-xaxis-grid "><path fill="none" class="highcharts-grid-line" d="M 121.5 41 L 121.5 349" opacity="1"></path><path fill="none" class="highcharts-grid-line" d="M 230.5 41 L 230.5 349" opacity="1"></path><path fill="none" class="highcharts-grid-line" d="M 339.5 41 L 339.5 349" opacity="1"></path><path fill="none" class="highcharts-grid-line" d="M 448.5 41 L 448.5 349" opacity="1"></path></g><g class="highcharts-grid highcharts-yaxis-grid "><path fill="none" stroke="#B9CFD7" stroke-width="0.5" class="highcharts-grid-line" d="M 53 349.25 L 475 349.25" opacity="1"></path><path fill="none" stroke="#B9CFD7" stroke-width="0.5" class="highcharts-grid-line" d="M 53 287.25 L 475 287.25" opacity="1"></path><path fill="none" stroke="#B9CFD7" stroke-width="0.5" class="highcharts-grid-line" d="M 53 226.25 L 475 226.25" opacity="1"></path><path fill="none" stroke="#B9CFD7" stroke-width="0.5" class="highcharts-grid-line" d="M 53 164.25 L 475 164.25" opacity="1"></path><path fill="none" stroke="#B9CFD7" stroke-width="0.5" class="highcharts-grid-line" d="M 53 103.25 L 475 103.25" opacity="1"></path><path fill="none" stroke="#B9CFD7" stroke-width="0.5" class="highcharts-grid-line" d="M 53 40.75 L 475 40.75" opacity="1"></path></g><rect fill="none" class="highcharts-plot-border" x="53" y="41" width="422" height="308"></rect><g class="highcharts-axis highcharts-xaxis "><path fill="none" class="highcharts-axis-line" stroke="#B9CFD7" stroke-width="0.5" d="M 53 349.25 L 475 349.25"></path></g><g class="highcharts-axis highcharts-yaxis "><path fill="none" class="highcharts-axis-line" d="M 53 41 L 53 349"></path></g><g class="highcharts-series-group"><g class="highcharts-series highcharts-series-0 highcharts-line-series highcharts-color-undefined " transform="translate(53,41) scale(1 1)" clip-path="url(#highcharts-2001cs0-7)"><path fill="none" d="M 4.1372549019619 60.36799999999997 L 25.912280701755 58.51999999999998 L 47.687306501549 56.05600000000001 L 69.462332301342 54.77347028320551 L 287.21259029928 48.468715484216716 L 308.98761609907 49.09826658200467 L 330.76264189886 49.34667683821567 L 352.53766769866 49.25299033460345 L 374.31269349845 51.127999999999986 L 396.08771929824 52.65418755842782 L 417.86274509804 53.777552152016" class="highcharts-graph" stroke="#83522E" stroke-width="2" stroke-linejoin="round" stroke-linecap="round"></path></g><g class="highcharts-markers highcharts-series-0 highcharts-line-series highcharts-color-undefined " transform="translate(53,41) scale(1 1)" clip-path="none"><path fill="#83522E" d="M 8 60 A 4 4 0 1 1 7.999998000000167 59.99600000066666 Z" class="highcharts-point"></path><path fill="#83522E" d="M 29 59 A 4 4 0 1 1 28.99999800000017 58.99600000066666 Z" class="highcharts-point"></path><path fill="#83522E" d="M 51 56 A 4 4 0 1 1 50.99999800000017 55.99600000066666 Z" class="highcharts-point"></path><path fill="#83522E" d="M 73 55 A 4 4 0 1 1 72.99999800000016 54.99600000066666 Z" class="highcharts-point"></path><path fill="#83522E" d="M 291 48 A 4 4 0 1 1 290.9999980000002 47.99600000066666 Z" class="highcharts-point"></path><path fill="#83522E" d="M 312 49 A 4 4 0 1 1 311.9999980000002 48.99600000066666 Z" class="highcharts-point"></path><path fill="#83522E" d="M 334 49 A 4 4 0 1 1 333.9999980000002 48.99600000066666 Z" class="highcharts-point"></path><path fill="#83522E" d="M 356 49 A 4 4 0 1 1 355.9999980000002 48.99600000066666 Z" class="highcharts-point"></path><path fill="#83522E" d="M 378 51 A 4 4 0 1 1 377.9999980000002 50.99600000066666 Z" class="highcharts-point"></path><path fill="#83522E" d="M 400 53 A 4 4 0 1 1 399.9999980000002 52.99600000066666 Z" class="highcharts-point"></path><path fill="#83522E" d="M 421 54 A 4 4 0 1 1 420.9999980000002 53.99600000066666 Z" class="highcharts-point"></path></g></g><text x="10" text-anchor="start" class="highcharts-title" style="color:#000000;font-size:14px;font-weight:bold;fill:#000000;" y="21"><tspan>Mittlere Wohnfläche pro Person</tspan></text><g class="highcharts-data-labels highcharts-series-0 highcharts-line-series highcharts-color-undefined " visibility="visible" transform="translate(53,41) scale(1 1)"><g class="highcharts-label highcharts-data-label highcharts-data-label-color-undefined " transform="translate(-5,67)"><text x="5" style="font-size:11px;font-weight:bold;color:#000000;fill:#000000;" y="16"><tspan x="5" y="16" class="highcharts-text-outline" fill="#FFFFFF" stroke="#FFFFFF" stroke-width="2px" stroke-linejoin="round" style="">40,2</tspan><tspan x="5" y="16">40,2</tspan></text></g><g class="highcharts-label highcharts-data-label highcharts-data-label-color-undefined " transform="translate(21,79)"><text x="5" style="font-size:11px;font-weight:bold;color:#000000;fill:#000000;" y="16"></text></g><g class="highcharts-label highcharts-data-label highcharts-data-label-color-undefined " transform="translate(43,76)"><text x="5" style="font-size:11px;font-weight:bold;color:#000000;fill:#000000;" y="16"></text></g><g class="highcharts-label highcharts-data-label highcharts-data-label-color-undefined " transform="translate(64,75)"><text x="5" style="font-size:11px;font-weight:bold;color:#000000;fill:#000000;" y="16"></text></g><g class="highcharts-label highcharts-data-label highcharts-data-label-color-undefined " transform="translate(282,68)"><text x="5" style="font-size:11px;font-weight:bold;color:#000000;fill:#000000;" y="16"></text></g><g class="highcharts-label highcharts-data-label highcharts-data-label-color-undefined " transform="translate(304,69)"><text x="5" style="font-size:11px;font-weight:bold;color:#000000;fill:#000000;" y="16"></text></g><g class="highcharts-label highcharts-data-label highcharts-data-label-color-undefined " transform="translate(326,69)"><text x="5" style="font-size:11px;font-weight:bold;color:#000000;fill:#000000;" y="16"></text></g><g class="highcharts-label highcharts-data-label highcharts-data-label-color-undefined " transform="translate(348,69)"><text x="5" style="font-size:11px;font-weight:bold;color:#000000;fill:#000000;" y="16"></text></g><g class="highcharts-label highcharts-data-label highcharts-data-label-color-undefined " transform="translate(369,71)"><text x="5" style="font-size:11px;font-weight:bold;color:#000000;fill:#000000;" y="16"></text></g><g class="highcharts-label highcharts-data-label highcharts-data-label-color-undefined " transform="translate(391,73)"><text x="5" style="font-size:11px;font-weight:bold;color:#000000;fill:#000000;" y="16"></text></g><g class="highcharts-label highcharts-data-label highcharts-data-label-color-undefined " transform="translate(396,61)"><text x="5" style="font-size:11px;font-weight:bold;color:#000000;fill:#000000;" y="16"><tspan x="5" y="16" class="highcharts-text-outline" fill="#FFFFFF" stroke="#FFFFFF" stroke-width="2px" stroke-linejoin="round">41,3</tspan><tspan x="5" y="16">41,3</tspan></text></g></g><g class="highcharts-axis-labels highcharts-xaxis-labels "><text x="122.46233230134239" style="color:#000000;cursor:default;font-size:11px;fill:#000000;" text-anchor="middle" transform="translate(0,0)" y="368" opacity="1"><tspan>2000</tspan></text><text x="231.33746130030977" style="color:#000000;cursor:default;font-size:11px;fill:#000000;" text-anchor="middle" transform="translate(0,0)" y="368" opacity="1"><tspan>2005</tspan></text><text x="340.21259029927717" style="color:#000000;cursor:default;font-size:11px;fill:#000000;" text-anchor="middle" transform="translate(0,0)" y="368" opacity="1"><tspan>2010</tspan></text><text x="449.08771929824456" style="color:#000000;cursor:default;font-size:11px;fill:#000000;" text-anchor="middle" transform="translate(0,0)" y="368" opacity="1"><tspan>2015</tspan></text></g><g class="highcharts-axis-labels highcharts-yaxis-labels "><text x="38" style="color:#000000;cursor:default;font-size:11px;fill:#000000;" text-anchor="end" transform="translate(0,0)" y="354" opacity="1"><tspan>0 m²</tspan></text><text x="38" style="color:#000000;cursor:default;font-size:11px;fill:#000000;" text-anchor="end" transform="translate(0,0)" y="292" opacity="1"><tspan>10 m²</tspan></text><text x="38" style="color:#000000;cursor:default;font-size:11px;fill:#000000;" text-anchor="end" transform="translate(0,0)" y="230" opacity="1"><tspan>20 m²</tspan></text><text x="38" style="color:#000000;cursor:default;font-size:11px;fill:#000000;" text-anchor="end" transform="translate(0,0)" y="169" opacity="1"><tspan>30 m²</tspan></text><text x="38" style="color:#000000;cursor:default;font-size:11px;fill:#000000;" text-anchor="end" transform="translate(0,0)" y="107" opacity="1"><tspan>40 m²</tspan></text><text x="38" style="color:#000000;cursor:default;font-size:11px;fill:#000000;" text-anchor="end" transform="translate(0,0)" y="46" opacity="1"><tspan>50 m²</tspan></text></g><text x="10" class="highcharts-credits" text-anchor="start" style="cursor:default;color:#000000;font-size:10px;fill:#000000;" y="390"><tspan>Quelle: Statistisches Amt Basel-Stadt, kantonale Bevölkerungsstatistik;</tspan><tspan x="10" dy="13">Statistisches Amt Basel-Stadt, kantonale Gebäude- und Wohnungsstatistik</tspan></text></svg>

<svg class="highcharts-root" xmlns="http://www.w3.org/2000/svg" width="485" height="415" font-family="arial" font-size="12">
    <defs>
        <clipPath id="a">
            <path fill="none" d="M0 0h422v308H0z"/>
        </clipPath>
    </defs>
    <rect fill="#fbfbfb" class="highcharts-background" width="485" height="415" rx="0" ry="0"/>
    <path fill="none" class="highcharts-plot-background" d="M53 41h422v308H53z"/>
    <g class="highcharts-grid highcharts-xaxis-grid">
        <path fill="none" class="highcharts-grid-line" d="M121.5 41v308m109-308v308m109-308v308m109-308v308"/>
    </g>
    <g class="highcharts-grid highcharts-yaxis-grid">
        <path fill="none" stroke="#B9CFD7" stroke-width=".5" class="highcharts-grid-line" d="M53 349.25h422m-422-62h422m-422-61h422m-422-62h422m-422-61h422M53 40.75h422"/>
    </g>
    <path fill="none" class="highcharts-plot-border" d="M53 41h422v308H53z"/>
    <g class="highcharts-axis highcharts-xaxis">
        <path fill="none" class="highcharts-axis-line" stroke="#B9CFD7" stroke-width=".5" d="M53 349.25h422"/>
    </g>
    <g class="highcharts-axis highcharts-yaxis">
        <path fill="none" class="highcharts-axis-line" d="M53 41v308"/>
    </g>
    <g class="highcharts-series-group">
        <g class="highcharts-series highcharts-series-0 highcharts-line-series highcharts-color-undefined" transform="translate(53 41)" clip-path="url(#a)">
            <path fill="none" d="M4.137 60.368l21.775-1.848 21.775-2.464 21.775-1.283 217.75-6.304 21.776.63 21.775.248 21.775-.094 21.775 1.875 21.775 1.526 21.775 1.124" class="highcharts-graph" stroke="#83522E" stroke-width="2" stroke-linejoin="round" stroke-linecap="round"/>
        </g>
        <g class="highcharts-markers highcharts-series-0 highcharts-line-series highcharts-color-undefined">
            <path fill="#83522E" d="M61 101a4 4 0 1 1 0-.004zm21-1a4 4 0 1 1 0-.004zm22-3a4 4 0 1 1 0-.004zm22-1a4 4 0 1 1 0-.004zm218-7a4 4 0 1 1 0-.004zm21 1a4 4 0 1 1 0-.004zm22 0a4 4 0 1 1 0-.004zm22 0a4 4 0 1 1 0-.004zm22 2a4 4 0 1 1 0-.004zm22 2a4 4 0 1 1 0-.004zm21 1a4 4 0 1 1 0-.004z" class="highcharts-point"/>
        </g>
    </g>
    <text x="10" class="highcharts-title" y="21" color="#000" font-size="14" font-weight="700">
        <tspan>Mittlere Wohnfläche pro Person</tspan>
    </text>
    <g class="highcharts-data-labels highcharts-series-0 highcharts-line-series highcharts-color-undefined">
        <text x="5" y="16" font-size="11" font-weight="700" color="#000" transform="translate(48 108)" class="highcharts-label highcharts-data-label highcharts-data-label-color-undefined">
            <tspan x="5" y="16" class="highcharts-text-outline" fill="#FFF" stroke="#FFF" stroke-width="2" stroke-linejoin="round">40,2</tspan><tspan x="5" y="16">40,2</tspan>
        </text>
        <text x="5" y="16" font-size="11" font-weight="700" color="#000" transform="translate(449 102)" class="highcharts-label highcharts-data-label highcharts-data-label-color-undefined">
            <tspan x="5" y="16" class="highcharts-text-outline" fill="#FFF" stroke="#FFF" stroke-width="2" stroke-linejoin="round">41,3</tspan><tspan x="5" y="16">41,3</tspan>
        </text>
    </g>
    <g class="highcharts-axis-labels highcharts-xaxis-labels" text-anchor="middle" color="#000" cursor="default" font-size="11">
        <text x="122.462" y="368">
            <tspan>2000</tspan>
        </text>
        <text x="231.337" y="368">
            <tspan>2005</tspan>
        </text>
        <text x="340.213" y="368">
            <tspan>2010</tspan>
        </text>
        <text x="449.088" y="368">
            <tspan>2015</tspan>
        </text>
    </g>
    <g class="highcharts-axis-labels highcharts-yaxis-labels" text-anchor="end" color="#000" cursor="default" font-size="11">
        <text x="38" y="354">
            <tspan>0 m²</tspan>
        </text>
        <text x="38" y="292">
            <tspan>10 m²</tspan>
        </text>
        <text x="38" y="230">
            <tspan>20 m²</tspan>
        </text>
        <text x="38" y="169">
            <tspan>30 m²</tspan>
        </text>
        <text x="38" y="107">
            <tspan>40 m²</tspan>
        </text>
        <text x="38" y="46">
            <tspan>50 m²</tspan>
        </text>
    </g>
    <text x="10" class="highcharts-credits" y="390" cursor="default" color="#000" font-size="10">
        <tspan>Quelle: Statistisches Amt Basel-Stadt, kantonale Bevölkerungsstatistik;</tspan><tspan x="10" dy="13">Statistisches Amt Basel-Stadt, kantonale Gebäude- und Wohnungsstatistik</tspan>
    </text>
</svg>
